X:1
T:Title
%%score 1 2 3
L:1/8
Q:1/4=120
M:4/4
K:Bb
V:1 treble nm="Grand Piano"
V:2 bass nm="Grand Piano, Melody"
V:3 bass nm="Grand Piano"
V:1
 B4 d2 d2 | f4 f4 | d2 c2 B3 d | f3 d B2 c2 | [Bd]8 | B4 d2 d2 | f4 f4 | d2 c2 B3 d | f3 d B2 c2 | %9
 [Bd]8 | B4 f2 f2 | d3 c B2 c2 | d4 d4 | f2 f2 d2 d2 | f3 d c4 | B4 f2 f2 | d3 c B2 c2 | d4 d4 | %18
 f3 d B2 c2 | [Bd]8 |] %20
V:2
 F,4 F,2 G,2 | B,4 B,4 | D2 C2 D3 B, | C3 D[K:bass] B,2 G,2 | F,8 | F,4 F,2 G,2 | B,4 B,4 | %7
 D2 C2 D3 B, | C3 D[K:bass] B,2 G,2 | F,8 | B,4 C2[K:treble] D2 | F3 G D2 C2 | B,4 B,4 | %13
 C2 D2 F2 F2 | DCDE F4 | B,4 C2 D2 | F3 G D2 C2 | B,4 B,4 | C3 D B,2 G,2 | F,8 |] %20
V:3
 [B,,F,]4 D,2 C,2 | B,,4 [B,,B,]4 | D,2 F,2 D,3 E, | F,3 F, D,2 C,2 | B,,8 | [B,,F,]4 D,2 C,2 | %6
 B,,4 [B,,B,]4 | D,2 F,2 D,3 E, | F,3 F, D,2 C,2 | B,,8 | [B,,B,]4 F,2 F,2 | F,3 E, D,2 F,2 | %12
 B,,4 B,,4 | F,2 D,2 B,2 B,2 | F,8 | [B,,B,]4 F,2 F,2 | F,3 E, D,2 F,2 | B,,4 [B,,B,]4 | %18
 F,3 F, D,2 C,2 | B,,8 |] %20

